X:1
T:Stiastny, LM
T:Arranged from Johann Stiastny, 1868
T:Stiastny, LM
T:Public Domain
C:Arranged from Johann Stiastny, 1868
Z:Public Domain
%%score ( 1 2 ) ( 3 4 )
L:1/8
M:3/4
K:Ab
V:1 treble 
V:2 treble 
V:3 bass 
V:4 bass 
V:1
 E2 [EA]2 [Ec]2 | [Ae]4 [Fd]2 | [Ec]4 [DB]2 | (C4 D2) | E2 [EA]2 [Ec]2 | [EB]4 [FA]2 | %6
 [EG]4 [=DF]2 | E6 | [EB]2 [EB]2 [EB]2 | [Dd]4 [DG]2 | [EA]4 [Ec]2 | [EB]6 | [Ec]2 [EA]2 [Fc]2 | %13
 [Ee]4 [Fd]2 | [Ec]4 [DB]2 | [CA]6 |] %16
V:2
 E2 x4 | x6 | x6 | A6 | E2 x4 | x6 | x6 | E6 | x6 | x6 | x6 | x6 | x6 | x6 | x6 | x6 |] %16
V:3
 [A,C]2 [E,C]2 [C,A,]2 | [A,,C]4 [D,A,]2 | [E,A,]4 [E,G,]2 | (F,2 E,2 D,2) | %4
 [C,A,]2 [C,A,]2 [A,,A,]2 | [E,G,]4 [A,,C]2 | [B,,B,]4 [B,,A,]2 | [E,G,]6 | %8
 [E,G,]2 [E,G,]2 [E,G,]2 | [B,,F,]4 [B,,B,]2 | [C,A,]4 [A,,A,]2 | [E,G,]6 | A,2 [A,C]2 [F,A,]2 | %13
 [C,A,]4 [D,A,]2 | [E,A,]4 [E,G,]2 | [A,,A,]6 |] %16
V:4
 x6 | x6 | x6 | A,6 | x6 | x6 | x6 | x6 | x6 | x6 | x6 | x6 | A,2 x4 | x6 | x6 | x6 |] %16

